data/ysabeau-infant.svg

<svg width="90.244" height="18.802" viewBox="0 0 90.244 18.802" xmlns="http://www.w3.org/2000/svg"><path transform="translate(0 14.756) scale(.014 -.014)" d="m293 248-266 410h91l224-366zm-15-248v293h75v-293zm62 251-41 41 227 366h79z"/><path transform="translate(8.848 14.756) scale(.014 -.014)" d="m182-9q-30 0-57.5 5.5t-49.5 15-38 19.5l20 56q24-22 59.5-35.5t68.5-13.5q41 0 64.5 20.5t23.5 48.5q0 25-15.5 40.5t-40 25.5-51.5 19.5-51.5 23-40.5 35-16 55.5q0 39 20 65t52 39 72 13q30 0 61.5-7.5t54.5-22.5l-20-53q-19 19-48 28.5t-52 9.5q-37 0-57.5-17t-20.5-42q0-23 16-38t40.5-24.5 52-19.5 52-23.5 40.5-36 16-57.5q0-26-10.5-49.5t-30.5-41.5-49-28-65-10z"/><path transform="translate(14.14 14.756) scale(.014 -.014)" d="m234-6q-58 0-101 26.5t-67 72.5-24 104q0 64 28.5 115t77 80 107.5 29q36 0 65.5-11.5t52.5-34 37-56.5l-19-31q-20 41-52.5 62t-74.5 21q-43 0-77-21t-53-58.5-19-87.5q0-46 16.5-82.5t46.5-57.5 72-21q37 0 74.5 19.5t64.5 67.5l28-17q-22-40-49.5-66.5t-61-39.5-72.5-13zm161 0-11 93v235l11 86 57 12v-414z"/><path transform="translate(21.546 14.756) scale(.014 -.014)" d="m249-6q-50 0-96.5 13.5t-69.5 37.5l67 36q20-20 52.5-30.5t66.5-10.5q47 0 79 21.5t48 58 16 81.5q0 52-17 89.5t-47 57.5-71 20q-37 0-77-23t-67-73l-24 32q23 35 52.5 61t64.5 40.5 76 14.5q39 0 72-13.5t58-39.5 39-62.5 14-83.5q0-60-26.5-112t-79-83.5-130.5-31.5zm-166 51v660l67 12v-636z"/><path transform="translate(28.924 14.756) scale(.014 -.014)" d="m247-9q-59 0-104 24.5t-70.5 70-25.5 107.5q0 69 28.5 120.5t77 80 109.5 28.5q74 0 111-42t37-115q0-8-0.5-17.5t-1.5-17.5h-59v35q0 54-22 81.5t-69 27.5q-44 0-77-21.5t-51-59.5-18-91q0-72 41-114.5t107-42.5q34 0 65 12t60 39l25-37q-27-25-54.5-40t-54.5-21.5-54-6.5zm-162 239 9 43h305v-43z"/><path transform="translate(35.308 14.756) scale(.014 -.014)" d="m234-6q-58 0-101 26.5t-67 72.5-24 104q0 64 28.5 115t77 80 107.5 29q36 0 65.5-11.5t52.5-34 37-56.5l-19-31q-20 41-52.5 62t-74.5 21q-43 0-77-21t-53-58.5-19-87.5q0-46 16.5-82.5t46.5-57.5 72-21q37 0 74.5 19.5t64.5 67.5l28-17q-22-40-49.5-66.5t-61-39.5-72.5-13zm161 0-11 93v235l11 86 57 12v-414z"/><path transform="translate(42.714 14.756) scale(.014 -.014)" d="m219-5q-62 0-101.5 41.5t-39.5 114.5v257l68 12v-247q0-59 26.5-93t74.5-34q26 0 53 10.5t51.5 33 40.5 57.5l25-23q-22-44-54.5-72.5t-69.5-42.5-74-14zm168-1-12 102v312l69 12v-414z"/><path transform="translate(53.466 14.756) scale(.014 -.014)" d="M116 0V658H193V0Z"/><path transform="translate(57.792 14.756) scale(.014 -.014)" d="m384 0v240q0 61-27 94.5t-77 33.5q-26 0-54.5-10.5t-54-32.5-43.5-57l-23 23q23 45 56.5 73.5t72 42 73.5 13.5q44 0 76.5-18.5t50.5-53.5 18-85v-263zm-306 0v408l56 12 12-99v-321z"/><path transform="translate(65.212 14.756) scale(.014 -.014)" d="m114 0v428q0 94 29 156.5t81.5 94.5 120.5 32q31 0 59.5-8t51.5-24l-29-51q-21 15-47.5 24.5t-55.5 9.5q-46 0-74-21t-42.5-54-20-70.5-5.5-70.5v-446zm-85 358 5 45 313 4-5-50z"/><path transform="translate(70.098 14.756) scale(.014 -.014)" d="m234-6q-58 0-101 26.5t-67 72.5-24 104q0 64 28.5 115t77 80 107.5 29q36 0 65.5-11.5t52.5-34 37-56.5l-19-31q-20 41-52.5 62t-74.5 21q-43 0-77-21t-53-58.5-19-87.5q0-46 16.5-82.5t46.5-57.5 72-21q37 0 74.5 19.5t64.5 67.5l28-17q-22-40-49.5-66.5t-61-39.5-72.5-13zm161 0-11 93v235l11 86 57 12v-414z"/><path transform="translate(77.504 14.756) scale(.014 -.014)" d="m384 0v240q0 61-27 94.5t-77 33.5q-26 0-54.5-10.5t-54-32.5-43.5-57l-23 23q23 45 56.5 73.5t72 42 73.5 13.5q44 0 76.5-18.5t50.5-53.5 18-85v-263zm-306 0v408l56 12 12-99v-321z"/><path transform="translate(84.924 14.756) scale(.014 -.014)" d="m234-7q-36 0-65 15t-45 43-16 69v274l23 108 46 9v-380q0-43 20-65t55-22q22 0 44 8t43 25l20-33q-28-26-60.5-38.5t-64.5-12.5zm103 364-313 1 5 45 311 4z"/></svg>

<?xml version="1.0" encoding="utf-8" ?>
<svg baseProfile="tiny" height="100%" version="1.2" width="100%" xmlns="http://www.w3.org/2000/svg" xmlns:ev="http://www.w3.org/2001/xml-events" xmlns:xlink="http://www.w3.org/1999/xlink"><defs /><g><path d="M293 248 27 658H118L342 292ZM278 0V293H353V0ZM340 251 299 292 526 658H605Z" transform="translate(0.0, 72) scale(0.072, -0.072)" /><path d="M182 -9Q152 -9 124.5 -3.5Q97 2 75.0 11.5Q53 21 37 31L57 87Q81 65 116.5 51.5Q152 38 185 38Q226 38 249.5 58.5Q273 79 273 107Q273 132 257.5 147.5Q242 163 217.5 173.0Q193 183 166.0 192.5Q139 202 114.5 215.5Q90 229 74.0 250.5Q58 272 58 306Q58 345 78.0 371.0Q98 397 130.0 410.0Q162 423 202 423Q232 423 263.5 415.5Q295 408 318 393L298 340Q279 359 250.0 368.5Q221 378 198 378Q161 378 140.5 361.0Q120 344 120 319Q120 296 136.0 281.0Q152 266 176.5 256.5Q201 247 228.5 237.0Q256 227 280.5 213.5Q305 200 321.0 177.5Q337 155 337 120Q337 94 326.5 70.5Q316 47 296.0 29.0Q276 11 247.0 1.0Q218 -9 182 -9Z" transform="translate(45.504, 72) scale(0.072, -0.072)" /><path d="M234 -6Q176 -6 133.0 20.5Q90 47 66.0 93.0Q42 139 42 197Q42 261 70.5 312.0Q99 363 147.5 392.0Q196 421 255 421Q291 421 320.5 409.5Q350 398 373.0 375.5Q396 353 410 319L391 288Q371 329 338.5 350.0Q306 371 264 371Q221 371 187.0 350.0Q153 329 134.0 291.5Q115 254 115 204Q115 158 131.5 121.5Q148 85 178.0 64.0Q208 43 250 43Q287 43 324.5 62.5Q362 82 389 130L417 113Q395 73 367.5 46.5Q340 20 306.5 7.0Q273 -6 234 -6ZM395 -6 384 87V322L395 408L452 420V6Z" transform="translate(72.72, 72) scale(0.072, -0.072)" /><path d="M249 -6Q199 -6 152.5 7.5Q106 21 83 45L150 81Q170 61 202.5 50.5Q235 40 269 40Q316 40 348.0 61.5Q380 83 396.0 119.5Q412 156 412 201Q412 253 395.0 290.5Q378 328 348.0 348.0Q318 368 277 368Q240 368 200.0 345.0Q160 322 133 272L109 304Q132 339 161.5 365.0Q191 391 226.0 405.5Q261 420 302 420Q341 420 374.0 406.5Q407 393 432.0 367.0Q457 341 471.0 304.5Q485 268 485 221Q485 161 458.5 109.0Q432 57 379.5 25.5Q327 -6 249 -6ZM83 45V705L150 717V81Z" transform="translate(110.80799999999999, 72) scale(0.072, -0.072)" /><path d="M247 -9Q188 -9 143.0 15.5Q98 40 72.5 85.5Q47 131 47 193Q47 262 75.5 313.5Q104 365 152.5 393.5Q201 422 262 422Q336 422 373.0 380.0Q410 338 410 265Q410 257 409.5 247.5Q409 238 408 230H349V265Q349 319 327.0 346.5Q305 374 258 374Q214 374 181.0 352.5Q148 331 130.0 293.0Q112 255 112 202Q112 130 153.0 87.5Q194 45 260 45Q294 45 325.0 57.0Q356 69 385 96L410 59Q383 34 355.5 19.0Q328 4 301.0 -2.5Q274 -9 247 -9ZM85 230 94 273H399V230Z" transform="translate(148.75199999999998, 72) scale(0.072, -0.072)" /><path d="M234 -6Q176 -6 133.0 20.5Q90 47 66.0 93.0Q42 139 42 197Q42 261 70.5 312.0Q99 363 147.5 392.0Q196 421 255 421Q291 421 320.5 409.5Q350 398 373.0 375.5Q396 353 410 319L391 288Q371 329 338.5 350.0Q306 371 264 371Q221 371 187.0 350.0Q153 329 134.0 291.5Q115 254 115 204Q115 158 131.5 121.5Q148 85 178.0 64.0Q208 43 250 43Q287 43 324.5 62.5Q362 82 389 130L417 113Q395 73 367.5 46.5Q340 20 306.5 7.0Q273 -6 234 -6ZM395 -6 384 87V322L395 408L452 420V6Z" transform="translate(181.58399999999997, 72) scale(0.072, -0.072)" /><path d="M219 -5Q157 -5 117.5 36.5Q78 78 78 151V408L146 420V173Q146 114 172.5 80.0Q199 46 247 46Q273 46 300.0 56.5Q327 67 351.5 89.5Q376 112 392 147L417 124Q395 80 362.5 51.5Q330 23 293.0 9.0Q256 -5 219 -5ZM387 -6 375 96V408L444 420V6Z" transform="translate(219.67199999999997, 72) scale(0.072, -0.072)" /><path d="M116 0V658H193V0Z" transform="translate(274.96799999999996, 72) scale(0.072, -0.072)" /><path d="M384 0V240Q384 301 357.0 334.5Q330 368 280 368Q254 368 225.5 357.5Q197 347 171.5 325.0Q146 303 128 268L105 291Q128 336 161.5 364.5Q195 393 233.5 406.5Q272 420 307 420Q351 420 383.5 401.5Q416 383 434.0 348.0Q452 313 452 263V0ZM78 0V408L134 420L146 321V0Z" transform="translate(297.21599999999995, 72) scale(0.072, -0.072)" /><path d="M114 0V428Q114 522 143.0 584.5Q172 647 224.5 679.0Q277 711 345 711Q376 711 404.5 703.0Q433 695 456 679L427 628Q406 643 379.5 652.5Q353 662 324 662Q278 662 250.0 641.0Q222 620 207.5 587.0Q193 554 187.5 516.5Q182 479 182 446V0ZM29 358 34 403 347 407 342 357Z" transform="translate(335.376, 72) scale(0.072, -0.072)" /><path d="M234 -6Q176 -6 133.0 20.5Q90 47 66.0 93.0Q42 139 42 197Q42 261 70.5 312.0Q99 363 147.5 392.0Q196 421 255 421Q291 421 320.5 409.5Q350 398 373.0 375.5Q396 353 410 319L391 288Q371 329 338.5 350.0Q306 371 264 371Q221 371 187.0 350.0Q153 329 134.0 291.5Q115 254 115 204Q115 158 131.5 121.5Q148 85 178.0 64.0Q208 43 250 43Q287 43 324.5 62.5Q362 82 389 130L417 113Q395 73 367.5 46.5Q340 20 306.5 7.0Q273 -6 234 -6ZM395 -6 384 87V322L395 408L452 420V6Z" transform="translate(360.50399999999996, 72) scale(0.072, -0.072)" /><path d="M384 0V240Q384 301 357.0 334.5Q330 368 280 368Q254 368 225.5 357.5Q197 347 171.5 325.0Q146 303 128 268L105 291Q128 336 161.5 364.5Q195 393 233.5 406.5Q272 420 307 420Q351 420 383.5 401.5Q416 383 434.0 348.0Q452 313 452 263V0ZM78 0V408L134 420L146 321V0Z" transform="translate(398.592, 72) scale(0.072, -0.072)" /><path d="M234 -7Q198 -7 169.0 8.0Q140 23 124.0 51.0Q108 79 108 120V394L131 502L177 511V131Q177 88 197.0 66.0Q217 44 252 44Q274 44 296.0 52.0Q318 60 339 77L359 44Q331 18 298.5 5.5Q266 -7 234 -7ZM337 357 24 358 29 403 340 407Z" transform="translate(436.75199999999995, 72) scale(0.072, -0.072)" /></g></svg>
